X:58
T:Rveillez
T:[Rveillez (3)]
M:2/4
L:1/8
N:Assez anime
N:La Bourre 4th edition 1929, page 63
Z:Steve Mansfield www.lesession.co.uk May 2012
K:Gmix
G | A A G ^F | G4 | ({G}c2) d e |
d2 d A | ({c}B) G A ^F | G4 | ({G}c2) d e |
d2 d A | c c B A | D4 | (Gc) d e |
(3dcB A A | c c B A | D4 | (Gc) d e | (3dcB !fermata! G2 |]
<end>
<start>
